X:423
%%etbk:tnset id:126,pos:2,rep:3x,ant:
%%etbk:tnset id:262,pos:6,rep:1x+A-Stop,ant:
%%etbk:wsite http://www.thesession.org/tunes/display/651
%%etbk:pldat 2016-06-22T16:23,2016-06-21T16:04,2016-06-18T16:24,2016-03-05T15:17,2016-02-27T15:19,2015-10-28T17:11,2015-10-26T18:10,2015-10-25T14:56,2015-06-23T18:49,2015-06-18T19:17,2015-03-11T17:18,2015-03-09T18:06,2014-11-05T19:08,2014-11-04T16:30,2014-11-02T14:30,2014-08-20T18:25,2014-06-25T16:01,2014-03-06T18:33,2014-03-01T17:58,2014-02-26T16:50,2013-10-30T15:59,2013-10-29T17:21,2013-10-27T15:01,2013-10-26T16:49,2013-10-16T15:21
T: Boys Of Bluehill, The
Z: Piano Box Version by Martin Fleischmann
H: Created 2013-02-19 /  Last Modified 2013-02-19
M: 4/4
L: 1/8
R: hornpipe
K: Dmaj
|: "D"{d}!2!B!1!A!2!F!4!A !1!D2!2!F!4!A | "A"!2!BA !2!(3Bc!4!d !2!e2de | "D"!3!fagf !2!egfe | !1!dfe!1!d "G"!2!B{d}B!4!dB |
| "D"{d}!2!B!1!A!2!F!4!A !1!D2!2!F!4!A | "A"!2!BA !2!(3Bc!4!d !2!e2de | "D"!3!fagf "A"!2!egfe | "D"!1!d2 !3!f2 d4 :|
fg |: "D"!5!a!3!f!1!df a2!4!g!3!f | "A"!1!efga !5!b2!4!a!3!g | "D"!3!fagf !2!egfe | !1!dfe!1!d "G"!2!B{d}B!4!dB |
| "D"{d}!2!B!1!A!2!F!4!A !1!D2!2!F!4!A | "A"!2!BA !2!(3Bc!4!d !2!e2de | "D"!3!fagf "A"!2!egfe | "D"!1!d2 !3!f2 d4 :|


